X:2111
T:Brenda's New Fiddle
R:reel
C:Paul S. Cranford
O:20th Century Cape Breton
D:The Lighthouse, Cranford Publications
B:The Lighthouse Collection, Brenda Stubbert's Collection
H:Composed for Brenda Stubbert and Otis Tomas
N:http://www.cranfordpub.com
L:1/8
Q:316
M:C|
K:E
c|B2 GB EBGB|cAec dBfd|egce BeGB|cABG FGAc|!
B2 GB EBGB|cAec dBfd|egce BeGB|AFBG E/E/E E:|!
|:a|ge e/e/e BGEB|cAec defa|ge e/e/e BGEB|AFBG E/E/E Ea|!
ge e/e/e BGEB|cAec defa|gbaf gecg|afbg e/e/e e:|!
